public/images/file-maker/woman-profile.svg

<svg width="226" height="348" viewBox="0 0 226 348" fill="none" xmlns="http://www.w3.org/2000/svg">
<g clip-path="url(#clip0)">
<path d="M211.125 185.114C211.125 213.418 201.305 233.491 185.565 243.166C185.131 243.455 175.167 250.531 174.59 250.82C158.127 260.062 168.669 239.123 143.542 224.682C93.1429 195.511 52.1308 124.895 52.1308 66.9873C52.1308 38.3943 25.1263 38.972 41.3001 29.441C41.7334 29.1521 55.4522 20.7764 55.8854 20.4876C72.3481 11.5343 94.8759 13.2672 119.714 27.5637C170.257 56.7343 211.125 127.206 211.125 185.114Z" fill="url(#paint0_linear)"/>
<path d="M99.3534 258.762C99.2089 258.762 99.0645 258.762 98.9201 258.618C72.2045 243.166 47.3661 217.173 28.7374 185.114C10.253 153.199 0 118.686 0 88.071C0 64.6767 5.92077 44.8927 17.3291 30.885C17.6179 30.5962 18.0511 30.5962 18.3399 30.7406C18.6288 31.0294 18.7732 31.4627 18.4843 31.7515C7.36486 45.6147 1.44409 65.1099 1.44409 88.071C1.44409 118.397 11.5527 152.766 30.0371 184.536C48.5214 216.306 73.2153 242.3 99.6422 257.607C99.931 257.751 100.075 258.185 99.931 258.618C99.7866 258.762 99.4978 258.762 99.3534 258.762Z" fill="#FF6B00"/>
<path d="M171.593 251.958C207.052 231.228 206.69 164.635 170.785 103.219C134.88 41.8025 77.0284 8.8197 41.5694 29.5496C6.11041 50.2795 6.47201 116.872 42.377 178.289C78.2821 239.705 136.134 272.688 171.593 251.958Z" fill="#FF6B00"/>
<path d="M165.49 254.141C165.779 254.141 165.923 253.997 166.212 253.852C166.79 253.563 167.223 253.13 167.801 252.841C167.079 253.275 166.357 253.708 165.49 254.141Z" fill="url(#paint1_radial)"/>
<path d="M109.027 34.495C84.7664 20.4874 62.8163 18.61 46.498 26.8414C47.7977 26.4081 49.2418 26.1193 50.6859 25.8305C65.9933 21.2094 85.3441 24.242 106.139 36.2279C156.538 65.3986 197.55 135.87 197.55 193.778C197.55 220.783 188.596 240.278 174.011 250.386C190.329 240.855 200.438 220.638 200.438 191.901C200.438 134.137 159.57 63.6656 109.027 34.495Z" fill="#FB9953"/>
<path d="M105.621 94.8012C88.9582 82.7849 71.0138 83.7462 58.0362 92.8786C45.0586 102.011 43.4564 168.662 49.5447 173.789C55.6329 178.915 104.179 212.241 112.51 218.329C121.963 225.379 157.692 216.567 157.692 204.23C157.692 196.86 159.134 138.861 146.316 125.403C138.465 117.232 122.444 106.818 105.621 94.8012Z" fill="#EAEAEA"/>
<path d="M126.681 109.521C131.108 121.446 121.642 134.956 105.576 139.676C89.5105 144.396 72.7676 138.56 68.3408 126.635C63.9139 114.709 73.3798 101.2 89.4458 96.4796C105.611 91.6975 122.255 97.5961 126.681 109.521Z" fill="#5F5C5D" fill-opacity="0.1"/>
<path d="M77.1014 144.149C75.1787 111.785 83.0294 95.7629 85.2724 88.0725C89.4381 88.2327 85.2724 85.3488 89.5983 86.6305C77.2616 82.6251 65.8861 84.5477 57.715 91.9177C49.5439 99.4479 46.66 116.912 46.1793 135.817C45.6987 151.839 46.0176 170.504 49.2231 174.109C53.0684 178.435 65.7259 185.004 81.5874 196.86C79.3444 184.203 78.0627 161.292 77.1014 144.149Z" fill="url(#paint2_radial)"/>
<path d="M146.316 125.563C140.228 119.155 128.211 111.144 115.875 102.332C119.72 105.055 119.88 106.978 123.245 109.542C120.521 120.436 114.913 127.486 108.184 141.906C100.173 158.889 93.1237 190.612 91.3613 203.91C101.135 211.12 109.466 217.208 112.19 219.451C124.366 228.744 157.211 216.407 157.211 204.23C157.211 196.86 158.813 139.022 146.316 125.563Z" fill="url(#paint3_radial)"/>
<path opacity="0.5" d="M122.444 112.425C119.4 122.199 113.472 133.093 106.743 146.231C98.4114 162.253 92.0027 190.291 90.0801 202.948C91.0414 203.589 92.4833 204.711 93.2844 205.352C95.5275 196.86 98.7318 183.722 106.262 167.861C116.356 146.231 131.256 125.243 134.46 120.757C130.936 118.514 126.449 114.989 122.444 112.425Z" fill="url(#paint4_linear)"/>
<path d="M122.282 112.425C119.238 122.038 113.15 132.933 106.261 145.911C97.769 161.772 88.957 201.827 88.957 201.827L91.8409 204.39C91.8409 204.39 98.0894 182.921 105.78 167.22C116.194 145.911 131.254 125.082 134.459 120.757C130.934 118.353 126.288 114.989 122.282 112.425Z" fill="url(#paint5_radial)"/>
<path d="M77.4218 151.518C76.6207 124.762 80.4659 108.58 81.7476 101.53C79.5046 100.569 77.2615 100.409 75.1787 100.889C73.897 108.099 71.1733 126.044 72.6152 148.474C73.7368 165.778 75.9798 182.761 77.582 193.495C78.2229 194.457 80.9466 195.898 81.9079 196.539C80.6261 185.965 77.9024 166.258 77.4218 151.518Z" fill="url(#paint6_radial)"/>
<path opacity="0.8" d="M87.3548 94.0001C84.9515 94.0001 82.7084 94.0001 79.0234 92.8785C80.6256 93.8398 81.5869 95.442 81.7471 98.6464C82.2278 108.259 78.2224 109.061 83.9902 113.226C86.073 114.668 91.5204 115.469 97.7689 115.469C106.901 106.337 106.1 91.2764 106.1 91.2764C106.1 91.2764 94.5646 93.6796 87.3548 94.0001Z" fill="url(#paint7_linear)"/>
<path d="M221.379 238.978C221.379 253.275 216.469 263.528 208.382 268.438C208.093 268.582 194.663 276.958 194.374 277.102C185.999 281.723 191.342 271.181 178.634 263.817C153.074 249.087 132.279 213.274 132.279 183.814C132.279 169.229 118.849 169.229 127.08 164.319C127.369 164.174 142.387 155.51 142.676 155.366C151.052 150.889 162.46 151.611 175.024 158.976C200.584 173.85 221.379 209.663 221.379 238.978Z" fill="url(#paint8_linear)"/>
<path d="M206.216 248.076C206.216 277.391 185.422 289.233 159.861 274.503C134.301 259.773 113.506 223.96 113.506 194.5C113.506 165.041 134.301 153.344 159.861 168.074C185.422 182.803 206.216 218.617 206.216 248.076Z" fill="url(#paint9_linear)"/>
<path d="M162.028 166.918C149.753 159.842 138.634 158.831 130.258 163.019C138.056 160.853 147.587 162.442 157.984 168.507C183.545 183.236 204.34 219.05 204.34 248.509C204.34 263.817 198.708 274.358 189.754 278.835C201.018 275.658 208.383 264.394 208.383 246.921C208.383 217.461 187.588 181.792 162.028 166.918Z" fill="#1FC2DE"/>
<path d="M130.113 208.941L150.62 253.564C151.197 254.719 152.641 254.863 153.508 253.997L189.321 216.306C190.91 214.718 190.765 212.118 189.177 210.674L177.046 199.699C175.169 197.966 172.281 198.399 170.981 200.566L151.63 232.913L142.244 210.241C141.666 208.941 140.655 208.075 139.356 207.93L132.135 206.486C130.547 206.198 129.536 207.642 130.113 208.941Z" fill="white"/>
<path d="M75.0167 97.3649C63.8015 113.226 71.492 128.768 71.492 128.768L85.7513 124.762C85.4309 124.602 81.4255 108.58 85.7513 90.4756C85.7513 90.3154 76.6189 95.1219 75.0167 97.3649Z" fill="#EAEAEA"/>
<path d="M85.75 124.762L89.5952 137.74C89.5952 137.74 125.644 133.414 128.688 105.055C128.849 105.055 102.733 127.806 85.75 124.762Z" fill="#EAEAEA"/>
<path d="M88.1552 25.1066C88.1552 25.1066 120.84 45.4542 120.199 82.3043C120.199 87.5915 111.387 111.304 101.934 107.939C101.934 107.939 55.7912 53.1447 74.6969 24.4657C85.9122 7.48263 109.785 -5.81543 137.182 16.7753L88.1552 25.1066Z" fill="#341C09"/>
<path d="M76.1387 74.9342C76.1387 74.9342 88.155 91.5969 80.785 107.779C78.7022 112.265 73.0945 130.85 102.254 125.243C102.254 125.243 133.176 112.425 124.845 102.812C119.397 96.4034 114.27 87.271 125.325 57.3103L76.1387 74.9342Z" fill="#E8A476"/>
<path d="M125.003 102.812C125.804 103.934 126.285 104.895 126.285 105.856C98.407 109.221 81.1035 88.5527 81.1035 88.5527L118.915 59.8738C118.915 59.8738 120.677 61.1555 123.081 63.3986C115.07 88.5527 119.876 96.8841 125.003 102.812Z" fill="#DB9669"/>
<path d="M85.1097 20.7807C85.1097 20.7807 77.259 22.8635 75.1762 45.6144C75.016 48.1779 70.6901 51.0618 69.0879 57.3103C67.4857 63.5588 64.1212 88.8732 78.701 92.7184C89.2753 95.4421 116.192 90.7958 126.926 65.962C137.821 40.9681 118.435 6.36108 85.1097 20.7807Z" fill="#F1B287"/>
<path d="M85.9102 30.0733C85.9102 30.0733 120.838 17.7365 117.793 84.5473L108.821 122.198C161.693 118.193 149.677 43.6918 149.677 43.6918C149.677 43.6918 148.555 5.39977 113.147 8.76434C113.147 8.92456 89.2747 15.8139 85.9102 30.0733Z" fill="#221101"/>
<path d="M85.9101 30.0732C85.9101 30.0732 77.8992 26.3882 70.6895 47.0563C70.6895 47.0563 74.054 -11.7436 128.848 10.8471C128.848 10.6869 95.2027 9.72559 85.9101 30.0732Z" fill="#341C09"/>
<path d="M113.629 69.3267C113.629 69.3267 118.596 56.99 125.645 61.4761C127.888 62.918 130.131 65.6417 126.126 71.8902C122.12 78.1387 114.43 83.4259 108.822 82.3044L113.629 69.3267Z" fill="#F1B287"/>
<path opacity="0.5" d="M117.955 73.9732C117.955 73.9732 126.126 68.8462 123.563 65.1612C120.999 61.4762 117.475 66.2828 117.475 66.2828L117.955 73.9732Z" fill="url(#paint10_linear)"/>
</g>
<defs>
<linearGradient id="paint0_linear" x1="80.0231" y1="42.4447" x2="218.418" y2="266.615" gradientUnits="userSpaceOnUse">
<stop offset="0.010101" stop-color="#FF6B00"/>
<stop offset="0.0359409" stop-color="#FF710A"/>
<stop offset="0.080137" stop-color="#FF8125"/>
<stop offset="0.1374" stop-color="#FF9A52"/>
<stop offset="0.2054" stop-color="#FFBE8F"/>
<stop offset="0.2816" stop-color="#FFEBDD"/>
<stop offset="0.3131" stop-color="white"/>
<stop offset="0.3286" stop-color="#FFF9F5"/>
<stop offset="0.3545" stop-color="#FFEADB"/>
<stop offset="0.3878" stop-color="#FFD2B1"/>
<stop offset="0.4271" stop-color="#FFAF76"/>
<stop offset="0.471" stop-color="#FF842C"/>
<stop offset="0.4949" stop-color="#FF6B00"/>
<stop offset="0.7576" stop-color="#FF6B00"/>
<stop offset="1" stop-color="#FF6B00"/>
</linearGradient>
<radialGradient id="paint1_radial" cx="0" cy="0" r="1" gradientUnits="userSpaceOnUse" gradientTransform="translate(167.316 253.431) scale(0.680307)">
<stop stop-color="white"/>
<stop offset="0.0656227" stop-color="#D8D8D8"/>
<stop offset="0.1615" stop-color="#A6A6A6"/>
<stop offset="0.2622" stop-color="#797979"/>
<stop offset="0.3658" stop-color="#545454"/>
<stop offset="0.4731" stop-color="#353535"/>
<stop offset="0.5852" stop-color="#1E1E1E"/>
<stop offset="0.7042" stop-color="#0D0D0D"/>
<stop offset="0.835" stop-color="#030303"/>
<stop offset="1"/>
</radialGradient>
<radialGradient id="paint2_radial" cx="0" cy="0" r="1" gradientUnits="userSpaceOnUse" gradientTransform="translate(93.1062 121.301) scale(57.2743 72.9609)">
<stop stop-color="#5C5C5C"/>
<stop offset="1" stop-color="#3A3A3A"/>
</radialGradient>
<radialGradient id="paint3_radial" cx="0" cy="0" r="1" gradientUnits="userSpaceOnUse" gradientTransform="translate(118.899 139.981) scale(67.3219 85.7603)">
<stop stop-color="#696969"/>
<stop offset="1" stop-color="#383838"/>
</radialGradient>
<linearGradient id="paint4_linear" x1="89.1915" y1="159.694" x2="134.454" y2="159.694" gradientUnits="userSpaceOnUse">
<stop stop-color="white"/>
<stop offset="1" stop-color="#BCBEC0"/>
</linearGradient>
<radialGradient id="paint5_radial" cx="0" cy="0" r="1" gradientUnits="userSpaceOnUse" gradientTransform="translate(114.541 125.587) scale(96.2986 109.538)">
<stop stop-color="#595959"/>
<stop offset="1" stop-color="#3A3A3A"/>
</radialGradient>
<radialGradient id="paint6_radial" cx="0" cy="0" r="1" gradientUnits="userSpaceOnUse" gradientTransform="translate(83.3769 111.072) scale(71.1565 161.568)">
<stop stop-color="#595959"/>
<stop offset="1" stop-color="#3A3A3A"/>
</radialGradient>
<linearGradient id="paint7_linear" x1="100.489" y1="107.735" x2="80.5803" y2="88.0892" gradientUnits="userSpaceOnUse">
<stop stop-color="white"/>
<stop offset="1" stop-color="#DBAC9B"/>
</linearGradient>
<linearGradient id="paint8_linear" x1="142.437" y1="154.338" x2="222.886" y2="288.025" gradientUnits="userSpaceOnUse">
<stop stop-color="#1BB0D4"/>
<stop offset="0.0767406" stop-color="#1EBFDD"/>
<stop offset="0.2248" stop-color="#27E8F6"/>
<stop offset="0.2727" stop-color="#2AF6FF"/>
<stop offset="0.7525" stop-color="#138BBD"/>
<stop offset="0.8939" stop-color="#1EBFDD"/>
<stop offset="1" stop-color="#1AAAD1"/>
</linearGradient>
<linearGradient id="paint9_linear" x1="31.4013" y1="250.033" x2="293.907" y2="191.188" gradientUnits="userSpaceOnUse">
<stop offset="0.0353535" stop-color="#138BBD"/>
<stop offset="0.2257" stop-color="#169AC7"/>
<stop offset="0.5946" stop-color="#1FC3DF"/>
<stop offset="1" stop-color="#2AF6FF"/>
</linearGradient>
<linearGradient id="paint10_linear" x1="116.4" y1="70.3313" x2="125.382" y2="66.0996" gradientUnits="userSpaceOnUse">
<stop stop-color="white"/>
<stop offset="1" stop-color="#BCBEC0"/>
</linearGradient>
<clipPath id="clip0">
<rect width="226" height="348" fill="white"/>
</clipPath>
</defs>
</svg>

<svg xmlns="http://www.w3.org/2000/svg" xmlns:xlink="http://www.w3.org/1999/xlink" width="226" height="348" fill="none" xmlns:v="https://vecta.io/nano"><g clip-path="url(#L)"><path d="M211.125 185.114c0 28.304-9.82 48.377-25.56 58.052-.434.289-10.398 7.365-10.975 7.654-16.463 9.242-5.921-11.697-31.048-26.138-50.399-29.171-91.411-99.787-91.411-157.695 0-28.593-27.004-28.015-10.831-37.546.433-.289 14.152-8.665 14.585-8.953 16.463-8.953 38.991-7.22 63.829 7.076 50.543 29.171 91.411 99.642 91.411 157.55z" fill="url(#A)"/><g fill="#ff6b00"><path d="M99.353 258.762c-.144 0-.289 0-.433-.144-26.716-15.452-51.554-41.445-70.183-73.504C10.253 153.199 0 118.686 0 88.071c0-23.394 5.921-43.178 17.329-57.186.289-.289.722-.289 1.011-.144.289.289.433.722.144 1.011C7.365 45.615 1.444 65.11 1.444 88.071c0 30.326 10.109 64.695 28.593 96.465s43.178 57.764 69.605 73.071c.289.144.433.578.289 1.011-.144.144-.433.144-.578.144zm72.24-6.804c35.459-20.73 35.097-87.323-.808-148.739S77.028 8.82 41.569 29.55s-35.097 87.322.808 148.739 93.757 94.399 129.216 73.669z"/></g><path d="M165.49 254.141c.289 0 .433-.144.722-.289.578-.289 1.011-.722 1.589-1.011l-2.311 1.3z" fill="url(#B)"/><path d="M109.027 34.495C84.766 20.487 62.816 18.61 46.498 26.841c1.3-.433 2.744-.722 4.188-1.011 15.307-4.621 34.658-1.588 55.453 10.397 50.399 29.171 91.411 99.642 91.411 157.55 0 27.005-8.954 46.5-23.539 56.608 16.318-9.531 26.427-29.748 26.427-58.485 0-57.764-40.868-128.235-91.411-157.406z" fill="#fb9953"/><path d="M105.621 94.801c-16.663-12.016-34.607-11.055-47.585-1.923s-14.58 75.783-8.492 80.91 54.634 38.452 62.965 44.54c9.453 7.05 45.182-1.762 45.182-14.099 0-7.37 1.442-65.369-11.376-78.827-7.851-8.171-23.872-18.585-40.695-30.602z" fill="#eaeaea"/><path d="M126.681 109.521c4.427 11.925-5.039 25.435-21.105 30.155s-32.808-1.116-37.235-13.041S73.38 101.2 89.446 96.48c16.165-4.782 32.809 1.117 37.235 13.041z" fill="#5f5c5d" fill-opacity=".1"/><path d="M77.101 144.149c-1.923-32.364 5.928-48.386 8.171-56.076 4.166.16 0-2.724 4.326-1.442-12.337-4.005-23.712-2.083-31.883 5.287-8.171 7.53-11.055 24.994-11.536 43.899-.481 16.022-.162 34.687 3.044 38.292 3.845 4.326 16.503 10.895 32.364 22.751-2.243-12.657-3.525-35.568-4.486-52.711z" fill="url(#C)"/><path d="M146.316 125.563c-6.088-6.408-18.105-14.419-30.441-23.231 3.845 2.723 4.005 4.646 7.37 7.21-2.724 10.894-8.332 17.944-15.061 32.364-8.011 16.983-15.06 48.706-16.823 62.004l20.829 15.541c12.176 9.293 45.021-3.044 45.021-15.221 0-7.37 1.602-65.208-10.895-78.667z" fill="url(#D)"/><path opacity=".5" d="M122.444 112.425c-3.044 9.774-8.972 20.668-15.701 33.806-8.332 16.022-14.74 44.06-16.663 56.717.961.641 2.403 1.763 3.204 2.404 2.243-8.492 5.447-21.63 12.978-37.491 10.094-21.63 24.994-42.618 28.198-47.104-3.524-2.243-8.011-5.768-12.016-8.332z" fill="url(#E)"/><path d="M122.282 112.425c-3.044 9.613-9.132 20.508-16.021 33.486-8.492 15.861-17.304 55.916-17.304 55.916l2.884 2.563s6.248-21.469 13.939-37.17c10.414-21.309 25.474-42.138 28.679-46.463l-12.177-8.332z" fill="url(#F)"/><path d="M77.422 151.518c-.801-26.756 3.044-42.938 4.326-49.988-2.243-.961-4.486-1.121-6.569-.641-1.282 7.21-4.005 25.155-2.564 47.585 1.122 17.304 3.365 34.287 4.967 45.021.641.962 3.365 2.403 4.326 3.044-1.282-10.574-4.005-30.281-4.486-45.021z" fill="url(#G)"/><path opacity=".8" d="M87.355 94c-2.403 0-4.646 0-8.331-1.122 1.602.961 2.564 2.563 2.724 5.768.481 9.613-3.525 10.415 2.243 14.58 2.083 1.442 7.53 2.243 13.779 2.243 9.132-9.132 8.331-24.193 8.331-24.193S94.565 93.68 87.355 94z" fill="url(#H)"/><path d="M221.379 238.978c0 14.297-4.91 24.55-12.997 29.46-.289.144-13.719 8.52-14.008 8.664-8.375 4.621-3.032-5.921-15.74-13.285-25.56-14.73-46.355-50.543-46.355-80.003 0-14.585-13.43-14.585-5.199-19.495.289-.145 15.307-8.809 15.596-8.953 8.376-4.477 19.784-3.755 32.348 3.61 25.56 14.874 46.355 50.687 46.355 80.002z" fill="url(#I)"/><path d="M206.216 248.076c0 29.315-20.794 41.157-46.355 26.427s-46.355-50.543-46.355-80.003 20.795-41.156 46.355-26.426 46.355 50.543 46.355 80.002z" fill="url(#J)"/><path d="M162.028 166.918c-12.275-7.076-23.394-8.087-31.77-3.899 7.798-2.166 17.329-.577 27.726 5.488 25.561 14.729 46.356 50.543 46.356 80.002 0 15.308-5.632 25.849-14.586 30.326 11.264-3.177 18.629-14.441 18.629-31.914 0-29.46-20.795-65.129-46.355-80.003z" fill="#1fc2de"/><path d="M130.113 208.941l20.507 44.623c.577 1.155 2.021 1.299 2.888.433l35.813-37.691c1.589-1.588 1.444-4.188-.144-5.632l-12.131-10.975a3.91 3.91 0 0 0-6.065.867l-19.351 32.347-9.386-22.672c-.578-1.3-1.589-2.166-2.888-2.311l-7.221-1.444c-1.588-.288-2.599 1.156-2.022 2.455z" fill="#fff"/><g fill="#eaeaea"><path d="M75.017 97.365c-11.215 15.861-3.525 31.403-3.525 31.403l14.259-4.006c-.32-.16-4.326-16.182 0-34.286 0-.16-9.132 4.646-10.735 6.889z"/><path d="M85.75 124.762l3.845 12.978s36.049-4.326 39.093-32.685c.161 0-25.955 22.751-42.938 19.707z"/></g><path d="M88.155 25.107s32.685 20.348 32.044 57.198c0 5.287-8.812 29-18.265 25.635 0 0-46.143-54.794-27.237-83.473 11.215-16.983 35.088-30.281 62.485-7.69l-49.027 8.331z" fill="#341c09"/><path d="M76.139 74.934s12.016 16.663 4.646 32.845c-2.083 4.486-7.69 23.071 21.469 17.464 0 0 30.922-12.818 22.591-22.431-5.448-6.409-10.575-15.541.48-45.502L76.139 74.934z" fill="#e8a476"/><path d="M125.003 102.812c.801 1.122 1.282 2.083 1.282 3.044-27.878 3.365-45.181-17.303-45.181-17.303l37.812-28.679s1.762 1.282 4.166 3.525c-8.011 25.154-3.205 33.486 1.922 39.413z" fill="#db9669"/><path d="M85.11 20.781s-7.851 2.083-9.934 24.834c-.16 2.563-4.486 5.447-6.088 11.696s-4.967 31.563 9.613 35.408c10.574 2.724 37.491-1.923 48.225-26.756 10.895-24.994-8.491-59.601-41.816-45.181z" fill="#f1b287"/><path d="M85.91 30.073s34.928-12.337 31.883 54.474l-8.972 37.651c52.872-4.005 40.856-78.506 40.856-78.506S148.555 5.4 113.147 8.764c0 .16-23.872 7.05-27.237 21.309z" fill="#221101"/><path d="M85.91 30.073s-8.011-3.685-15.221 16.983c0 0 3.365-58.8 58.159-36.209 0-.16-33.645-1.122-42.938 19.226z" fill="#341c09"/><path d="M113.629 69.327s4.967-12.337 12.016-7.851c2.243 1.442 4.486 4.166.481 10.414s-11.696 11.536-17.304 10.414l4.807-12.978z" fill="#f1b287"/><path opacity=".5" d="M117.955 73.973s8.171-5.127 5.608-8.812-6.088 1.122-6.088 1.122l.48 7.69z" fill="url(#K)"/></g><defs><linearGradient id="A" x1="80.023" y1="42.445" x2="218.418" y2="266.615" xlink:href="#M"><stop offset=".01" stop-color="#ff6b00"/><stop offset=".036" stop-color="#ff710a"/><stop offset=".08" stop-color="#ff8125"/><stop offset=".137" stop-color="#ff9a52"/><stop offset=".205" stop-color="#ffbe8f"/><stop offset=".282" stop-color="#ffebdd"/><stop offset=".313" stop-color="#fff"/><stop offset=".329" stop-color="#fff9f5"/><stop offset=".355" stop-color="#ffeadb"/><stop offset=".388" stop-color="#ffd2b1"/><stop offset=".427" stop-color="#ffaf76"/><stop offset=".471" stop-color="#ff842c"/><stop offset=".495" stop-color="#ff6b00"/></linearGradient><radialGradient id="B" cx="0" cy="0" r="1" gradientTransform="translate(167.316 253.431) scale(0.680307)" xlink:href="#M"><stop stop-color="#fff"/><stop offset=".066" stop-color="#d8d8d8"/><stop offset=".162" stop-color="#a6a6a6"/><stop offset=".262" stop-color="#797979"/><stop offset=".366" stop-color="#545454"/><stop offset=".473" stop-color="#353535"/><stop offset=".585" stop-color="#1e1e1e"/><stop offset=".704" stop-color="#0d0d0d"/><stop offset=".835" stop-color="#030303"/><stop offset="1"/></radialGradient><radialGradient id="C" cx="0" cy="0" r="1" gradientTransform="translate(93.1062 121.301) scale(57.2743 72.9609)" xlink:href="#M"><stop stop-color="#5c5c5c"/><stop offset="1" stop-color="#3a3a3a"/></radialGradient><radialGradient id="D" cx="0" cy="0" r="1" gradientTransform="translate(118.899 139.981) scale(67.3219 85.7603)" xlink:href="#M"><stop stop-color="#696969"/><stop offset="1" stop-color="#383838"/></radialGradient><linearGradient id="E" x1="89.192" y1="159.694" x2="134.454" y2="159.694" xlink:href="#M"><stop stop-color="#fff"/><stop offset="1" stop-color="#bcbec0"/></linearGradient><radialGradient id="F" cx="0" cy="0" r="1" gradientTransform="translate(114.541 125.587) scale(96.2986 109.538)" xlink:href="#M"><stop stop-color="#595959"/><stop offset="1" stop-color="#3a3a3a"/></radialGradient><radialGradient id="G" cx="0" cy="0" r="1" gradientTransform="translate(83.3769 111.072) scale(71.1565 161.568)" xlink:href="#M"><stop stop-color="#595959"/><stop offset="1" stop-color="#3a3a3a"/></radialGradient><linearGradient id="H" x1="100.489" y1="107.735" x2="80.58" y2="88.089" xlink:href="#M"><stop stop-color="#fff"/><stop offset="1" stop-color="#dbac9b"/></linearGradient><linearGradient id="I" x1="142.437" y1="154.338" x2="222.886" y2="288.025" xlink:href="#M"><stop stop-color="#1bb0d4"/><stop offset=".077" stop-color="#1ebfdd"/><stop offset=".225" stop-color="#27e8f6"/><stop offset=".273" stop-color="#2af6ff"/><stop offset=".753" stop-color="#138bbd"/><stop offset=".894" stop-color="#1ebfdd"/><stop offset="1" stop-color="#1aaad1"/></linearGradient><linearGradient id="J" x1="31.401" y1="250.033" x2="293.907" y2="191.188" xlink:href="#M"><stop offset=".035" stop-color="#138bbd"/><stop offset=".226" stop-color="#169ac7"/><stop offset=".595" stop-color="#1fc3df"/><stop offset="1" stop-color="#2af6ff"/></linearGradient><linearGradient id="K" x1="116.4" y1="70.331" x2="125.382" y2="66.1" xlink:href="#M"><stop stop-color="#fff"/><stop offset="1" stop-color="#bcbec0"/></linearGradient><clipPath id="L"><path fill="#fff" d="M0 0h226v348H0z"/></clipPath><linearGradient id="M" gradientUnits="userSpaceOnUse"/></defs></svg>
